app/data/levels/3.svg

<?xml version="1.0" encoding="UTF-8" standalone="no"?>
<!-- Created with Inkscape (http://www.inkscape.org/) -->

<svg
   xmlns:dc="http://purl.org/dc/elements/1.1/"
   xmlns:cc="http://creativecommons.org/ns#"
   xmlns:rdf="http://www.w3.org/1999/02/22-rdf-syntax-ns#"
   xmlns:svg="http://www.w3.org/2000/svg"
   xmlns="http://www.w3.org/2000/svg"
   xmlns:sodipodi="http://sodipodi.sourceforge.net/DTD/sodipodi-0.dtd"
   xmlns:inkscape="http://www.inkscape.org/namespaces/inkscape"
   version="1.1"
   width="600"
   height="400"
   id="svg2989"
   inkscape:version="0.48.2 r9819"
   sodipodi:docname="3.svg">
  <sodipodi:namedview
     pagecolor="#ffffff"
     bordercolor="#666666"
     borderopacity="1"
     objecttolerance="10"
     gridtolerance="10"
     guidetolerance="10"
     inkscape:pageopacity="0"
     inkscape:pageshadow="2"
     inkscape:window-width="1199"
     inkscape:window-height="763"
     id="namedview3007"
     showgrid="false"
     inkscape:zoom="0.58666667"
     inkscape:cx="184.09728"
     inkscape:cy="200"
     inkscape:window-x="0"
     inkscape:window-y="0"
     inkscape:window-maximized="0"
     inkscape:current-layer="svg2989" />
  <defs
     id="defs2991">
    <inkscape:path-effect
       vertical="false"
       scale_y_rel="false"
       prop_scale="1"
       bendpath="m 8.3569497,198.7707 586.8407203,0"
       is_visible="true"
       id="path-effect3068"
       effect="bend_path" />
    <inkscape:path-effect
       id="path-effect4066"
       effect="curvestitching" />
    <inkscape:path-effect
       id="path-effect4064"
       effect="spiro" />
    <inkscape:path-effect
       id="path-effect4062"
       effect="sketch" />
    <inkscape:path-effect
       id="path-effect4060"
       effect="ruler" />
    <inkscape:path-effect
       id="path-effect4046"
       effect="skeletal" />
    <inkscape:path-effect
       id="path-effect4044"
       effect="interpolate" />
    <inkscape:path-effect
       id="path-effect4042"
       effect="interpolate" />
    <inkscape:path-effect
       id="path-effect3945"
       effect="skeletal" />
    <inkscape:path-effect
       id="path-effect3933"
       effect="curvestitching" />
  </defs>
  <metadata
     id="metadata2994">
    <rdf:RDF>
      <cc:Work
         rdf:about="">
        <dc:format>image/svg+xml</dc:format>
        <dc:type
           rdf:resource="http://purl.org/dc/dcmitype/StillImage" />
        <dc:title />
      </cc:Work>
    </rdf:RDF>
  </metadata>
  <g
     id="layer1">
    <rect
       style="fill:#0000ff;fill-rule:evenodd;stroke:#000000;stroke-width:0.44748709px;stroke-linecap:butt;stroke-linejoin:miter;stroke-opacity:1"
       id="rect2997"
       y="0"
       x="0"
       height="400"
       width="10" />
    <rect
       style="fill:#0000ff;fill-rule:evenodd;stroke:#000000;stroke-width:0.31657982px;stroke-linecap:butt;stroke-linejoin:miter;stroke-opacity:1"
       id="rect3056"
       y="390"
       x="0"
       height="10"
       width="600" />
    <rect
       style="fill:#0000ff;fill-rule:evenodd;stroke:#000000;stroke-width:0.44748709px;stroke-linecap:butt;stroke-linejoin:miter;stroke-opacity:1"
       id="rect3224"
       y="0"
       x="590"
       height="400"
       width="10" />
    <rect
       style="fill:#0000ff;fill-rule:evenodd;stroke:#000000;stroke-width:0.31657991px;stroke-linecap:butt;stroke-linejoin:miter;stroke-opacity:1"
       id="rect3226"
       y="0"
       x="0"
       height="10"
       width="600" />
    <circle
       style="fill:#00ff00"
       id="circle3036"
       transform="translate(27.223744,27.5)"
       r="15"
       cy="0"
       cx="0" />
    <circle
       style="fill:#00ffff"
       id="circle3095"
       transform="translate(316.7773,183)"
       r="15"
       cy="0"
       cx="0" />
    <path
      inkscape:connector-curvature="0"
      id="path3950"
      d="M334.62069 174.39811L343.01264 178.29278L342.85702 186.26602L333.07901 196.2865L320.93205 199.97751L303.61365625 198.79213375L287.876 191.41781L277.66622375 181.82026375L270.93209 169.5747L269.50993625 155.91085125L273.1667 142.64457L282.9754125 128.9317075L296.23249 118.42112L318.93217875 107.97951L343.41887 102.88849L368.95021375 102.98867375L393.96834 108.07923L423.536475 122.03755375L447.55596 144.14546L459.4376125 165.04695L464.19179 188.56435L460.7603175 212.0753925L450.38941 233.48831L430.3771375 255.59464L405.6241 272.3286L366.03272625 287.85723125L323.99114 294.4612L284.101915 292.772905L245.23326 283.66858L204.8125425 264.357035L186.764481562 251.056767813L170.74398 235.35489L151.536725 206.983595L140.9692 174.44884L140.93187625 142.2052075L150.36079 111.33172L170.86504125 79.91254825L198.43499 54.36943L240.9277325 29.5567575L287.54828 13.676705L326.624692969 6.96690117813L366.24884125 5.589934875L405.707368906 9.49629238438L444.28692 18.63646L471.414978906 28.6915431094L497.28968375 41.674359875L521.433056719 57.5951117031L543.36712 76.464L571.4757025 111.37916525L582.041152187 131.163391969L589.74352 152.24506L595.10974 186.31087875L591.98389 220.65059L577.63060875 260.04824875L553.95002 294.71286L535.473601562 313.661961875L514.969155 330.37438L469.50127 357.39776L435.564563437 371.408310156L400.3454 381.76195125L364.248849062 388.532814219L327.67998 391.79503L290.67854125 391.500895469L253.8710975 387.64245625L217.6226025 380.209421406L182.29801 369.1915L151.687794172 356.148422031L122.523588375 340.09427875L95.2814426406 321.009188594L70.437407 298.87327L38.149056625 258.51072625L25.7184408594 235.833904844L16.320786 211.72438L8.3569497 166.82766"
      style="opacity:0.98999999;fill:none;stroke:#000000;stroke-width:7.45710373;stroke-linecap:butt;stroke-linejoin:miter;stroke-miterlimit:4;stroke-opacity:1;stroke-dasharray:none;display:inline" />
  </g>
</svg>

<?xml version="1.0" encoding="UTF-8" standalone="no"?>
<!-- Created with Inkscape (http://www.inkscape.org/) -->
<svg id="svg2989" xmlns:rdf="http://www.w3.org/1999/02/22-rdf-syntax-ns#" xmlns="http://www.w3.org/2000/svg" height="400" width="600" version="1.1" xmlns:cc="http://creativecommons.org/ns#" xmlns:dc="http://purl.org/dc/elements/1.1/">
 <defs id="defs2991"></defs>
 <metadata id="metadata2994">
  <rdf:RDF>
   <cc:Work rdf:about="">
    <dc:format>image/svg+xml</dc:format>
    <dc:type rdf:resource="http://purl.org/dc/dcmitype/StillImage"/>
    <dc:title/>
   </cc:Work>
  </rdf:RDF>
 </metadata>
 <g id="layer1">
  <rect id="rect2997" style="stroke-linejoin:miter;fill-rule:evenodd;stroke:#000000;stroke-linecap:butt;stroke-width:0.44748709px;fill:#0000ff;" height="400" width="10" y="0" x="0"/>
  <rect id="rect3056" style="stroke-linejoin:miter;fill-rule:evenodd;stroke:#000000;stroke-linecap:butt;stroke-width:0.31657982px;fill:#0000ff;" height="10" width="600" y="390" x="0"/>
  <rect id="rect3224" style="stroke-linejoin:miter;fill-rule:evenodd;stroke:#000000;stroke-linecap:butt;stroke-width:0.44748709px;fill:#0000ff;" height="400" width="10" y="0" x="590"/>
  <rect id="rect3226" style="stroke-linejoin:miter;fill-rule:evenodd;stroke:#000000;stroke-linecap:butt;stroke-width:0.31657991px;fill:#0000ff;" height="10" width="600" y="0" x="0"/>
  <circle id="circle3036" style="fill:#00ff00;" transform="translate(27.223744,27.5)" cy="0" cx="0" r="15"/>
  <circle id="circle3095" style="fill:#00ffff;" transform="translate(316.7773,183)" cy="0" cx="0" r="15"/>
  <path id="path3950" d="m334.62,174.4,8.392,3.8947-0.15562,7.9732-9.778,10.02-12.147,3.691-17.318-1.1854-15.738-7.3743-10.21-9.5976-6.7341-12.246-1.4222-13.664,3.6568-13.266,9.8087-13.713,13.257-10.511,22.7-10.442,24.487-5.091,25.531,0.10018,25.018,5.0906,29.568,13.958,24.019,22.108,11.882,20.901,4.7542,23.517-3.4315,23.511-10.371,21.413-20.012,22.106-24.753,16.734-39.591,15.529-42.042,6.604-39.889-1.6883-38.869-9.1043-40.421-19.312-18.048-13.3-16.02-15.702-19.207-28.371-10.568-32.535-0.0373-32.244,9.4289-30.873,20.504-31.419,27.57-25.543,42.493-24.813,46.621-15.88,39.076-6.7098,39.624-1.377,39.459,3.9064,38.58,9.1402,27.128,10.055,25.875,12.983,24.143,15.921,21.934,18.869,28.109,34.915,10.565,19.784,7.7024,21.082,5.3662,34.066-3.1258,34.34-14.353,39.398-23.681,34.665-18.476,18.949-20.504,16.712-45.468,27.023-33.937,14.011-35.219,10.354-36.097,6.7709-36.569,3.2622-37.001-0.29413-36.807-3.8584-36.248-7.433l-35.29-11.02-30.61-13.04-29.17-16.06-27.239-19.08-24.844-22.14-32.288-40.36-12.431-22.68-9.397-24.11-7.9641-44.89" style="opacity:0.98999999;stroke-linejoin:miter;stroke:#0000ff;stroke-linecap:butt;stroke-miterlimit:4;stroke-dasharray:none;stroke-width:7.45710373;fill:none;"/>
 </g>
</svg>
